svgs/duotone/arrow-down-left-and-arrow-up-right-to-center.svg

<svg xmlns="http://www.w3.org/2000/svg" viewBox="0 0 512 512"><!-- Font Awesome Pro 6.0.0-alpha2 by @fontawesome - https://fontawesome.com License - https://fontawesome.com/license (Commercial License) --><defs><style>.fa-secondary{opacity:.4}</style></defs><path d="M54.625 502.625L176 381.25V432C176 449.688 190.313 464 208 464S240 449.688 240 432V304C240 299.836 239.152 295.688 237.535 291.777C234.295 283.945 228.057 277.703 220.223 274.465C216.313 272.848 212.164 272 208 272H80C62.313 272 48 286.312 48 304S62.313 336 80 336H130.75L9.375 457.375C-3.125 469.875 -3.125 490.125 9.375 502.625S42.125 515.125 54.625 502.625Z" class="fa-secondary"/><path d="M274.463 220.219C277.705 228.059 283.941 234.297 291.783 237.539C295.689 239.152 299.838 240 304 240H432C449.688 240 464 225.688 464 208S449.688 176 432 176H381.25L502.625 54.625C515.125 42.125 515.125 21.875 502.625 9.375C490.132 -3.118 469.882 -3.132 457.375 9.375L336 130.75V80C336 62.313 321.688 48 304 48S272 62.313 272 80V208C272 212.164 272.848 216.313 274.463 220.219Z" class="fa-primary"/></svg>

<svg xmlns="http://www.w3.org/2000/svg" viewBox="0 0 512 512"><!--! Font Awesome Pro 6.3.0 by @fontawesome - https://fontawesome.com License - https://fontawesome.com/license (Commercial License) Copyright 2023 Fonticons, Inc. --><defs><style>.fa-secondary{opacity:.4}</style></defs><path class="fa-primary" d="M274.5 220.2c3.242 7.84 9.479 14.08 17.32 17.32C295.7 239.2 299.8 240 304 240h128c17.69 0 32-14.31 32-32s-14.31-32-32-32h-50.75l121.4-121.4c12.5-12.5 12.5-32.75 0-45.25c-12.49-12.49-32.74-12.51-45.25 0L336 130.8V80c0-17.69-14.31-32-32-32s-32 14.31-32 32v127.1C272 212.2 272.8 216.3 274.5 220.2z"/><path class="fa-secondary" d="M54.63 502.6L176 381.3V432c0 17.69 14.31 32 32 32s32-14.31 32-32v-128c0-4.164-.8477-8.312-2.465-12.22C234.3 283.9 228.1 277.7 220.2 274.5C216.3 272.8 212.2 272 208 272h-128c-17.69 0-32 14.31-32 32s14.31 32 32 32h50.75l-121.4 121.4c-12.5 12.5-12.5 32.75 0 45.25S42.13 515.1 54.63 502.6z"/></svg>
